X: 34180
T: Reel Of Cluny, The
R: reel
M: 4/4
K: Amajor
c|:AEcA ecae|ffec dBBc|AEcA ecae|1 ffed cAAc:|2 ffed cAAg||
agae cAAc|Bbba bffg|aefd cAAc|dBee cAAg|
agae cAAc|Bbba bffg|afbg aefd|eedB cAA||

